X:18
T:18. The Spanish Patriots
M:2/4
L:1/16
Q:1/4=90
Z:Peter Dunk, VMP, 2011
K:C
(cBcd) ceGB | cBcd cege | (cBcd) ceGB | AcBd c2c'2 H:|!
|:(d^cde) d2g2 | d2a2d2b2 | (d^cde) d2g2 | bag^f g4 !D.C.! :|!

